!!!OTL: AUF DEM SCHEITERHAUFEN KLAGET BITTERLICH
!!!ARE: Europa, Mitteleuropa, Deutschland
!!!SCT: B0129
!!!YEM: Copyright 1995, estate of Helmut Schaffrath.
**kern
*ICvox
*Ivox
*M3/4
*k[f#]
*e:
{8B
8B
=1
8e
8f#
4gn
8b
8b
=2
8a
8gn
4f#}
{8gn
8f#
=3
4e
4gn
8f#
8d#
=4
4e
4r}
{8B
8B
=5
8e
8f#
4gn
8b
8b
=6
8a
8gn
4f#}
{8gn
8f#
=7
4e
4gn
8f#
8d#
=8
4e
4r}
{8gn
8a
=9
4b
4b
8ccn
8b
=10
8b
8a
4a}
{8b
8a
=11
4gn
4b
8a
8gn
=12
2f#}
{8gn
8f#
=13
8e
8f#
4gn
8f#
8gn
=14
8b
8a
4a}
{8gn
8f#
=15
4e
4gn
8f#
8d#
=16
2e}
==
!!!AGN: Ballade, Romanze
!!!ONB: ESAC (Essen Associative Code) Database: BOEHME
!!!AMT: simple triple
!!!AIN: vox
!!!EED: Helmut Schaffrath
!!!EEV: 1.0
*-
